X:1
T:Cantus, 10.10.10
T:Cantus, 10.10.10
T:Uzziah Christopher Burnap, 1895
T:Public Domain Courtesy of the Cyber Hymnal™
C:Uzziah Christopher Burnap, 1895
Z:Public Domain
Z:Courtesy of the Cyber Hymnal™
%%score 1 2
L:1/8
M:4/4
K:Ab
V:1 treble 
V:2 bass 
V:1
 [CA]4 [DF]2 [DE]2 | [CA]4 [EG]4 | [DF]2 [DF]2 [DF]2 [DF]2 | [CE]8 | [=Ec]4 [EB]2 [Ec]2 | %5
 [FB]4 [FA]4 | [FA]2 [EF]2 [=DG]2 [DA]2 | [EB]8 | [EA]4 [EG]2 [DF]2 | [CE]4 [Fc]4 | %10
 [Ge]3 [Fd] [Ec]2 [CA]2 | [DB]4 [CA]4 |] %12
V:2
 [A,,E,]4 [A,,F,]2 [A,,G,]2 | [A,,A,]4 [C,E,]4 | [D,F,]2 [E,G,]2 [F,A,]2 [G,B,]2 | [A,C]8 | %4
 [G,C]4 [G,C]2 [G,C]2 | [F,C]4 [F,C]4 | [F,A,]2 [F,_C]2 [F,B,]2 [B,,A,]2 | [E,G,]8 | %8
 [A,,C]4 [C,C]2 [D,A,]2 | [A,,A,]4 [A,C]4 | [C,C]3 [D,A,] [A,,A,]2 [F,A,]2 | [E,G,]4 [A,,A,]4 |] %12

